X:269
%%etbk:tnset id:82,pos:1,rep:3x,ant:
%%etbk:wsite http://www.thesession.org/tunes/display/3321
%%etbk:pldat 2015-07-07T10:10,2014-12-16T17:37,2014-12-14T16:03,2014-11-26T16:33,2014-09-21T11:33,2014-02-15T16:36,2014-02-04T18:10,2013-11-19T17:15,2013-09-17T10:16,2013-08-27T18:39,2013-05-07T20:01
T: Hardiman's
T: Joe Derrane's
Z: Piano Box Version by Martin Fleischmann
H: Created 2013-02-19 /  Last Modified 2013-02-19
M: 6/8
L: 1/8
R: jig
K: Bmin
|  !1!A |: "G"!2!B3 !2!B!1!A!2!F | "A"!4!A!2!F!1!E E2F | "D"!1!D!2!F!3!A !5!d!2!ef | "bm"!5!afe !1!d!2!BA |
"G"!2!BdB {d}!2!B!1!A!2!F | "A"!4!A!2!F!1!E E2F | "D"!1!D!2!F!3!A !5!d!2!ef |1 "bm"!2!e!1!d!2!B B2!1!A:|2 "bm"!2!e!1!d!2!B B2!4!d:|
|: "A"!5!e!1!A!5!e !5!e!4!d!2!B | "D"!1!A!2!F!1!A !4!d2!1!A | !2!d2!3!f !4!a!3!a!4!a | !5!b!4!a!3!f !4!a!3!f!4!a |
!5!ba!3!f !4!afa | !5!ba!3!f !2!e!1!d!2!B | !1!d2!3!f !5!afe |1 "bm"!1!d!2!BA !2!B2!4!d:|2 "bm"!1!d!2!BA !2!B2!1!A||


